!!!OTL: WENN DU WUESSTEST MEINE SCHMERZEN
!!!ARE: Europa, Mitteleuropa, Deutschland, Hessen, Wetterau, Langsdorf
!!!SCT: E0587
!!!YEM: Copyright 1995, estate of Helmut Schaffrath.
**kern
*ICvox
*Ivox
*M4/4
*k[b-e-a-]
*E-:
=1
{4.e-
8g
4b-
4ee-
=2
8ee-
8dd
4cc
4b-
4ee-}
=3
{4cc
4cc
4b-
4b-
=4
4a-
4b-
4g
4r}
=5
{4.e-
8g
4b-
4ee-
=6
8ee-
8dd
4cc
4b-
4ee-}
=7
{4cc
4cc
4b-
4b-
=8
4a-
4b-
4g
4r}
=9
{4.ee-
8cc
4b-
4ff
=10
4.ee-
8cc
4dd
4b-}
=11
{4.ee-
8cc
4cc
4ff
=12
8ee-
8dd
8ee-
8cc
4b-
4a-}
=13
{4.g
8a-
4b-
4ee-
=14
8ee-
8dd
4cc
4b-
4ee-}
=15
{4cc
4cc
4b-
4b-
=16
4a-
4b-
4g
4r}
==
!!!AGN: Liebes - Lied
!!!ONB: ESAC (Essen Associative Code) Database: ERK1
!!!AMT: simple quadruple
!!!AIN: vox
!!!EED: Helmut Schaffrath
!!!EEV: 1.0
*-
